X:345
T:Rolling in the Ryegrass
M:C|
L:1/8
Q:120
R:Reel (Key of D)
K:D
"D"ABAF DFAF | "G"G2BG dGBG | "D"~A3F DFAF | "A"GBAG "D"FDDF |
"D"~A3F DFAF | "G"GFEF GBdB | "D"~A3F DFAF | "A"GBAG "D"FDD2 |:
"D"ABde ~f3d | "G"~g3e fedB | "D"ABde fefg | "A"afdf "D"efdB :|]
